X: 5
T: Hanter-dro 3    [Em]
G:Kazimodal
R:Hanter-zañs
C:Traditionnel, arrangement Ronan Keryell http://kazimodal.trad.org
Q:C2=100
M:3/4
S:Tonioù Breizh-Izel 1910 (Plañwour/An Oriant)
K:EDor
|: "Em"EG/2F/2 EG "D"{FG}F2 \
| "Am"(A/2G/2)(A/2B/2) "Bm"{GA}GA/2F/2 "C"GE \
| "Em"EG/2F/2 EG "D"{FG}F2 \
| "Am"(A/2G/2)B/2A/2 "C"{GA}G"D"F "Em"E2 :|
|: "G"B(B/2c/2) "Am"AB "C"{GA}GE \
| "Am"A(A/2B/2) "D"FA "C"(G/2F/2)(G/2A/2) \
| "G"B(B/2c/2) "Am"AB "C"{GA}GE \
| "D"A(A/2B/2) "C"{GA}G"D"F "Em"E2 :|
